24x24/apps/cawbird.svg

<svg height="24" width="24" xmlns="http://www.w3.org/2000/svg"><ellipse cx="12" cy="10" opacity=".2" rx="10" ry="8.5"/><ellipse cx="12" cy="9.5" fill="#5c3a62" rx="10" ry="8.5"/><path d="m8.75 4.5a3.75 3.75 0 0 0 -3.75 3.75 3.75 3.75 0 0 0 3.75 3.75 3.75 3.75 0 0 0 3.25-1.887 3.75 3.75 0 0 0 3.25 1.887 3.75 3.75 0 0 0 3.75-3.75 3.75 3.75 0 0 0 -3.75-3.75 3.75 3.75 0 0 0 -3.25 1.887 3.75 3.75 0 0 0 -3.25-1.887z" opacity=".2"/><circle cx="8.75" cy="7.75" fill="#f4f4f7" r="3.75"/><circle cx="15.25" cy="7.75" fill="#f4f4f7" r="3.75"/><circle cx="9.5" cy="7.5" fill="#3465a4" r="1.5"/><circle cx="14.5" cy="7.5" fill="#3465a4" r="1.5"/><path d="m11.954 9.5c-.91.027-1.465.742-1.9 1.314-.724 1.04-1.232 2.253-.995 3.466.184 1.062.42 2.12.712 3.164.512 1.646.977 3.326 1.918 4.848.401.622.774-.321.945-.617.969-1.99 1.643-4.072 2.156-6.171.277-1.134.327-2.332-.14-3.437-.382-.946-.942-1.97-2.067-2.451a1.76 1.76 0 0 0 -.63-.116z" opacity=".2"/><path d="m11.954 9c-.91.027-1.465.742-1.9 1.314-.724 1.04-1.232 2.253-.995 3.466.184 1.062.42 2.12.712 3.164.512 1.646.977 3.326 1.918 4.848.401.622.774-.321.945-.617.969-1.99 1.643-4.072 2.156-6.171.277-1.134.327-2.332-.14-3.437-.382-.946-.942-1.97-2.067-2.451a1.76 1.76 0 0 0 -.63-.116z" fill="#7e7a81"/><path d="m12 1a10 8.5 0 0 0 -10 8.5 10 8.5 0 0 0 .013.291 10 8.5 0 0 1 9.987-8.291 10 8.5 0 0 1 9.987 8.209 10 8.5 0 0 0 .013-.209 10 8.5 0 0 0 -10-8.5z" fill="#f4f4f7" opacity=".1"/></svg>

<svg height="24" width="24" xmlns="http://www.w3.org/2000/svg">
    <ellipse cx="12" cy="10" opacity=".2" rx="10" ry="8.5"/>
    <ellipse cx="12" cy="9.5" fill="#5c3a62" rx="10" ry="8.5"/>
    <path d="M8.75 4.5A3.75 3.75 0 0 0 5 8.25 3.75 3.75 0 0 0 8.75 12 3.75 3.75 0 0 0 12 10.113 3.75 3.75 0 0 0 15.25 12 3.75 3.75 0 0 0 19 8.25a3.75 3.75 0 0 0-3.75-3.75A3.75 3.75 0 0 0 12 6.387 3.75 3.75 0 0 0 8.75 4.5z" opacity=".2"/>
    <circle cx="8.75" cy="7.75" fill="#f4f4f7" r="3.75"/>
    <circle cx="15.25" cy="7.75" fill="#f4f4f7" r="3.75"/>
    <circle cx="9.5" cy="7.5" fill="#3465a4" r="1.5"/>
    <circle cx="14.5" cy="7.5" fill="#3465a4" r="1.5"/>
    <path d="M11.954 9.5c-.91.027-1.465.742-1.9 1.314-.724 1.04-1.232 2.253-.995 3.466.184 1.062.42 2.12.712 3.164.512 1.646.977 3.326 1.918 4.848.401.622.774-.321.945-.617.969-1.99 1.643-4.072 2.156-6.171.277-1.134.327-2.332-.14-3.437-.382-.946-.942-1.97-2.067-2.451a1.76 1.76 0 0 0-.63-.116z" opacity=".2"/>
    <path d="M11.954 9c-.91.027-1.465.742-1.9 1.314-.724 1.04-1.232 2.253-.995 3.466.184 1.062.42 2.12.712 3.164.512 1.646.977 3.326 1.918 4.848.401.622.774-.321.945-.617.969-1.99 1.643-4.072 2.156-6.171.277-1.134.327-2.332-.14-3.437-.382-.946-.942-1.97-2.067-2.451a1.76 1.76 0 0 0-.63-.116z" fill="#7e7a81"/>
    <path d="M12 1A10 8.5 0 0 0 2 9.5a10 8.5 0 0 0 .013.291A10 8.5 0 0 1 12 1.5a10 8.5 0 0 1 9.987 8.209A10 8.5 0 0 0 22 9.5 10 8.5 0 0 0 12 1z" fill="#f4f4f7" opacity=".1"/>
</svg>
